X: 7067
T: Chris Droney's Favourite
R: reel
M: 4/4
K: Adorian
EA~A2 abg2|agef gedc|BGDG EGDG|BGB/c/d ged2|
EA~A2 abg2|agef gabg|agab gedB|GABG A2z2:|
a2ea agbg|agef gedc|BGDG EGDG|BGB/c/d gedg|
eaab a2ga|bggb agef|~g3a gedB|GBdB A2z2:|

